!!!COM: Music21
!!!OTL: barndance_Young-Collins
!!!OMV: barndance_Young-Collins
**kern
*clefG2
*k[f#]
*G:
*M4/4
=1
8gL
8aJ
8bL
8ccJ
4dd
4dd
=
4cc
4ee
4a
8bL
8ccJ
=
4dd
4dd
4ee
8ddL
8ccJ
=
4b
4a
2g
=||
*M4/4
8gL
8aJ
8bL
8ccJ
4dd
4dd
=
4cc
4ee
4a
8bL
8ccJ
=
4dd
4dd
4ee
8ddL
8ccJ
!!linebreak:original
=
4b
4a
2g
=||
4e
4d
8eL
8f#J
4g
=
4a
4a
4.g
8a
=
4b
4a
8bL
8ccJ
4dd
=
4ee
4ee
8ddL
8ccJ
8bL
8aJ
=
8gL
8aJ
8bL
8ccJ
4dd
4dd
=
4cc
4ee
4a
8bL
8ccJ
!!linebreak:original
=
4dd
4dd
4ee
8ddL
8ccJ
=
4b
4a
2g
=||
*-
